X:1
T:Title
%%score { ( 1 3 ) | ( 2 4 ) }
L:1/8
M:4/4
K:Ab
V:1 treble nm="Grand Piano"
V:3 treble 
V:2 bass 
V:4 bass 
V:1
 z8[Q:1/4=106] | A2- [CEA-]2 [CEA]>[B,DF] [A,EA]>B | z c3- c2 z2 | z2 F2 F>[FA] (3[F-B][FA]F | %4
 E-[A,CE-][G,B,E-][B,DE-] [A,CE]2 z2 | A2- [CEA-]2 [CEA]>[CE] [EA]>[EGB] | z e3- e2 z2 | c6 z2 | %8
[M:3/4] A6 |[M:1/4] A>A |[M:4/4] d6 z2 | z c3- c2 z2 | e6 z2 | B4 z4 | c6 z2 | z d3- d2 z2 | %16
 c6 z2 |[M:3/4] A6 |] %18
V:2
 z4 z2 E>E | A,,2 A,,2 A,,>B,, C,>[E,G,E] | [A,E][A,E][E,A,][C,A,] [A,,A,][A,,A,] z2 | %3
 [F,CF]2 [F,C]2 [D,D]>[D,D] (3:2:2D,2 D | A,,A,,E,E, A,,2 E>E | A,,2 A,,2 A,,>A,, C,>E, | %6
 [A,EA][A,CA][K:bass][E,B,][E,B,] [A,C][A,C] z2 | [A,E]2 [G,B,]2 [F,A,]>[C,A,] [E,G,]>[E,G,] | %8
[M:3/4] z2 F,F, E,2 |[M:1/4] z2 |[M:4/4] [D,A,]2 [D,A,]2 [D,A,]>[D,A,] [C,A,]>[B,,G,] | %11
 [A,,A,][A,,A,][C,A,][E,A,] A,A,[K:treble] c>c | %12
 c2 [A,E]>[A,E] [A,E]>[A,EA][K:bass] [G,E]>[F,=DF] | E,E,B,,B,, [E,E]2[K:treble] [EA]>[CA] | %14
 [A,E]2 A,2 A,>[A,C] [G,B,E]>[A,_G] | [D,A,][D,A,][D,A,][D,A,] [D,A,][D,A,] C,>D, | %16
 z2 EE E>[E,C] E,>E, |[M:3/4] z C DD C2 |] %18
V:3
 x8 | [CE]2 z2 z4 | .c2 EE EE c>B | A6 z A, | .[A,C]2 z2 z4 | [CE]2 z2 z4 | .c2 GG AA E>A | %7
 z2 =E2 F>[FA] [DB]>[DB] |[M:3/4] [A,C]2 DD C2 |[M:1/4] x2 |[M:4/4] F2 F2 F>[Fd] [EA]>[EB] | %11
 [Ec]EEE EE e>e | z z/ c/ c>c A>c B>A | [EG][EG][=DF][FA] G2 c>e | z2 E2 E>A B>c | [Fd]FFF FF A>B | %16
 z2 AA A>[Ae] [EAc]>[DGB] |[M:3/4] [CE]E FF E2 |] %18
V:4
 x8 | x8 | x8 | z4 z2 A,D, | x8 | x8 | x2[K:bass] x6 | x8 |[M:3/4] A,,6 |[M:1/4] x2 |[M:4/4] x8 | %11
 x6[K:treble] x2 | x6[K:bass] x2 | x6[K:treble] x2 | x8 | x8 | E,6 z2 |[M:3/4] A,,6 |] %18

